_src/_includes/img/icons/payment-methods/discover.svg

<svg height="471" viewBox="0 0 750 471" width="750" xmlns="http://www.w3.org/2000/svg"><g fill="none"><path d="m52.8771038 0c-29.1977144 0-52.8771038 23.1545612-52.8771038 51.7102589v367.5794781c0 28.561092 23.671801 51.710263 52.8771038 51.710263h644.2457902c29.197721 0 52.877106-23.154567 52.877106-51.710263v-166.814333-200.7651451c0-28.5610912-23.671798-51.7102589-52.877106-51.7102589z" fill="#4d4d4d"/><path d="m314.569558 152.198414c8.496692 0 15.623019 1.732486 24.29575 5.91184v22.086944c-8.215039-7.633649-15.341433-10.828272-24.76525-10.828272-18.522943 0-33.090443 14.575613-33.090443 33.055512 0 19.487559 14.116664 33.195816 34.008789 33.195816 8.954394 0 15.948731-3.029126 23.846904-10.540068v22.098311c-8.98177 4.019468-16.260731 5.606582-24.76525 5.606582-30.074856 0-53.44426-21.935378-53.44426-50.224132 0-27.983844 23.991471-50.362533 53.91376-50.362533zm-93.378154.608624c11.101644 0 21.260058 3.611764 29.753231 10.672793l-10.334654 12.860824c-5.144962-5.48076-10.010587-7.79271-15.927366-7.79271-8.51273-.000009-14.712288 4.60629-14.712288 10.667104 0 5.198169 3.480471 7.949373 15.332029 12.117572 22.466173 7.808407 29.124106 14.732247 29.124106 30.021852 0 18.632348-14.399481 31.601248-34.923385 31.601248-15.028817 0-25.954923-5.625269-35.054837-18.319508l12.757289-11.679589c4.549173 8.358717 12.136923 12.836175 21.557615 12.836175 8.810827 0 15.333914-5.778378 15.333914-13.575631 0-4.041776-1.975789-7.507632-5.921356-9.957985-1.986471-1.16011-5.921183-2.889801-13.653087-5.481449-18.549557-6.347114-24.913615-13.131513-24.913615-26.390935 0-15.750673 13.666981-27.579761 31.582404-27.579761zm225.694865 1.677998h21.574519l27.003827 64.645381 27.35127-64.645381h21.411125l-43.744366 98.713378h-10.627625zm-382.0650555.147887h28.9907605c32.03042 0 54.358853 19.785673 54.358853 48.189686 0 14.162958-6.830789 27.85678-18.381914 36.944284-9.719951 7.670829-20.794721 11.110776-36.1290572 11.110776h-28.8386423zm92.4372765 0h19.750972v96.244746h-19.750972zm395.898433 0h56.0115v16.307818h-36.275548v21.362651h34.938404v16.300227h-34.938404v25.979503h36.275548v16.294547h-56.0115zm69.093673 0h29.283731c22.779125 0 35.832336 10.397084 35.832336 28.415915 0 14.735576-8.18674 24.406009-23.063778 27.283967l31.8735 40.544864h-24.288241l-27.33624-38.663996h-2.574741v38.663996h-19.726567zm19.726567 15.158813v29.147789h5.771106c12.612039 0 19.2965-5.205119 19.2965-14.880105 0-9.366368-6.685663-14.267684-18.98475-14.267684zm-557.4199967 1.149005v63.642381h5.2997299c12.7626418 0 20.8227668-2.324017 27.0282478-7.648608 6.830606-5.781942 10.939375-15.014091 10.939375-24.250317 0-9.221364-4.108769-18.17828-10.939375-23.960222-6.523529-5.610901-14.265606-7.783234-27.0282478-7.783234z" fill="#fff"/><path d="m399.164288 151.559424c29.750164 0 53.866808 22.168005 53.866808 49.552763v.031212c0 27.384748-24.116644 49.583975-53.866808 49.583975-29.750163 0-53.866807-22.199227-53.866807-49.583975v-.031212c0-27.384758 24.116644-49.552763 53.866807-49.552763zm350.818324 119.534515c-25.047961 17.233194-212.574048 140.397024-537.263375 199.891132h484.38627c29.197721 0 52.877105-23.154567 52.877105-51.710264z" fill="#f47216"/></g></svg>

<svg width="750" height="471" viewBox="0 0 750 471" version="1.1" xmlns="http://www.w3.org/2000/svg" xmlns:xlink="http://www.w3.org/1999/xlink">
    <!-- Generator: Sketch 48.2 (47327) - http://www.bohemiancoding.com/sketch -->
    <desc>Created with Sketch.</desc>
    <defs></defs>
    <g id="Page-1" stroke="none" stroke-width="1" fill="none" fill-rule="evenodd">
        <g id="discover" fill-rule="nonzero">
            <path d="M52.8771038,0 C23.6793894,0 -4.55476115e-15,23.1545612 0,51.7102589 L0,419.289737 C0,447.850829 23.671801,471 52.8771038,471 L697.122894,471 C726.320615,471 750,447.845433 750,419.289737 L750,252.475404 L750,51.7102589 C750,23.1491677 726.328202,-4.4533018e-15 697.122894,0 L52.8771038,0 Z" id="Shape" fill="#4D4D4D"></path>
            <path d="M314.569558,152.198414 C323.06625,152.198414 330.192577,153.9309 338.865308,158.110254 L338.865308,180.197198 C330.650269,172.563549 323.523875,169.368926 314.100058,169.368926 C295.577115,169.368926 281.009615,183.944539 281.009615,202.424438 C281.009615,221.911997 295.126279,235.620254 315.018404,235.620254 C323.972798,235.620254 330.967135,232.591128 338.865308,225.080186 L338.865308,247.178497 C329.883538,251.197965 322.604577,252.785079 314.100058,252.785079 C284.025202,252.785079 260.655798,230.849701 260.655798,202.560947 C260.655798,174.577103 284.647269,152.198414 314.569558,152.198414 Z M221.191404,152.807038 C232.293048,152.807038 242.451462,156.418802 250.944635,163.479831 L240.609981,176.340655 C235.465019,170.859895 230.599394,168.547945 224.682615,168.547945 C216.169885,168.547936 209.970327,173.154235 209.970327,179.215049 C209.970327,184.413218 213.450798,187.164422 225.302356,191.332621 C247.768529,199.141028 254.426462,206.064868 254.426462,221.354473 C254.426462,239.986821 240.026981,252.955721 219.503077,252.955721 C204.47426,252.955721 193.548154,247.330452 184.44824,234.636213 L197.205529,222.956624 C201.754702,231.315341 209.342452,235.792799 218.763144,235.792799 C227.573971,235.792799 234.097058,230.014421 234.097058,222.217168 C234.097058,218.175392 232.121269,214.709536 228.175702,212.259183 C226.189231,211.099073 222.254519,209.369382 214.522615,206.777734 C195.973058,200.43062 189.609,193.646221 189.609,180.386799 C189.609,164.636126 203.275981,152.807038 221.191404,152.807038 Z M446.886269,154.485036 L468.460788,154.485036 L495.464615,219.130417 L522.815885,154.485036 L544.22701,154.485036 L500.482644,253.198414 L489.855019,253.198414 L446.886269,154.485036 Z M64.8212135,154.632923 L93.811974,154.632923 C125.842394,154.632923 148.170827,174.418596 148.170827,202.822609 C148.170827,216.985567 141.340038,230.679389 129.788913,239.766893 C120.068962,247.437722 108.994192,250.877669 93.6598558,250.877669 L64.8212135,250.877669 L64.8212135,154.632923 Z M157.25849,154.632923 L177.009462,154.632923 L177.009462,250.877669 L157.25849,250.877669 L157.25849,154.632923 Z M553.156923,154.632923 L609.168423,154.632923 L609.168423,170.940741 L572.892875,170.940741 L572.892875,192.303392 L607.831279,192.303392 L607.831279,208.603619 L572.892875,208.603619 L572.892875,234.583122 L609.168423,234.583122 L609.168423,250.877669 L553.156923,250.877669 L553.156923,154.632923 Z M622.250596,154.632923 L651.534327,154.632923 C674.313452,154.632923 687.366663,165.030007 687.366663,183.048838 C687.366663,197.784414 679.179923,207.454847 664.302885,210.332805 L696.176385,250.877669 L671.888144,250.877669 L644.551904,212.213673 L641.977163,212.213673 L641.977163,250.877669 L622.250596,250.877669 L622.250596,154.632923 Z M641.977163,169.791736 L641.977163,198.939525 L647.748269,198.939525 C660.360308,198.939525 667.044769,193.734406 667.044769,184.05942 C667.044769,174.693052 660.359106,169.791736 648.060019,169.791736 L641.977163,169.791736 Z M84.5571663,170.940741 L84.5571663,234.583122 L89.8568962,234.583122 C102.619538,234.583122 110.679663,232.259105 116.885144,226.934514 C123.71575,221.152572 127.824519,211.920423 127.824519,202.684197 C127.824519,193.462833 123.71575,184.505917 116.885144,178.723975 C110.361615,173.113074 102.619538,170.940741 89.8568962,170.940741 L84.5571663,170.940741 Z" id="Shape" fill="#FFFFFF"></path>
            <path d="M399.164288,151.559424 C428.914452,151.559424 453.031096,173.727429 453.031096,201.112187 L453.031096,201.143399 C453.031096,228.528147 428.914452,250.727374 399.164288,250.727374 C369.414125,250.727374 345.297481,228.528147 345.297481,201.143399 L345.297481,201.112187 C345.297481,173.727429 369.414125,151.559424 399.164288,151.559424 Z M749.982612,271.093939 C724.934651,288.327133 537.408564,411.490963 212.719237,470.985071 L697.105507,470.985071 C726.303228,470.985071 749.982612,447.830504 749.982612,419.274807 L749.982612,271.093939 Z" id="Shape" fill="#F47216"></path>
        </g>
    </g>
</svg>
